X:1
T:Minal, LM
T:Minal, LM
T:German chorale, arr. Conrad Kocher (1786-1872)
T:Public Domain Courtesy of the Cyber Hymnal™
C:German chorale, arr. Conrad Kocher (1786-1872)
Z:Public Domain
Z:Courtesy of the Cyber Hymnal™
%%score 1 2 3 4
L:1/8
Q:1/4=103
M:4/4
K:G
V:1 treble 
V:2 treble 
V:3 treble-8 
V:4 bass 
V:1
 B2 | B2 c2 (BA) (GB) | B2 A2 !fermata!F2 G2 | A2 (Bc) d2 (cB) | A2 A2 !fermata!G2 B2 | %5
 (cB) A2 (Bc) (de) | d2 (dc) !fermata!B2 d2 | e2 d2 c2 B2 | B3 A !fermata!G2 |] %9
V:2
 ^D2 | E2 F2 (E^D) (ED) | E2 E2 !fermata!^D2 E2 | =D2 D2 D2 D2 | D2 F2 !fermata!G2 G2 | %5
 G2 (FE) D2 G2 | G2 F2 !fermata!D2 G2 | G2 G2 F2 E2 | E2 ^D2 !fermata!E2 |] %9
V:3
 (BA) | G2 A2 (GF) (EF) | G2 A2 !fermata!B2 (Bc) | (dc) (BA) G2 (AB) | c2 d2 !fermata!B2 d2 | %5
 e2 (dc) (BA) (GA) | B2 A2 !fermata!G2 B2 | B2 B2 A2 G2 | F2 F2 !fermata!E2 |] %9
V:4
 B,,2 | E,2 A,,2 B,,2 (C,B,,) | (E,D,) C,2 !fermata!B,,2 E,2 | F,2 (G,A,) B,2 (A,G,) | %4
 F,2 D,2 !fermata!G,2 G,2 | C,2 D,2 (G,,A,,) (B,,C,) | D,2 D,2 !fermata!G,2 G,2 | %7
 E,2 (B,,C,) D,2 E,2 | B,,2 B,,2 !fermata!E,2 |] %9

